X:1
T:Star of the County Down
T:Star of the County Down
T:Traditional
T:Arranged Dave Christie
C:Traditional
%%score 1 2 { 3 | 4 }
L:1/8
Q:1/4=300
M:8/4
K:G
V:1 treble nm="Flute" snm="Fl."
V:2 treble nm="Violin" snm="Vln."
V:3 treble nm="Accordion" snm="Acc."
V:4 bass 
V:1
 z4 | e2 g2 e2 d2 e4 z2 EF | g2 b2 g2 f2 a4 z4 | b2 d'2 a2 g2 e'4 b4 | a8 z8 | %5
 e2 g2 e2 d2 e4 z2 EF | g2 b2 g2 f2 a4 z4 | e4 g2 b2 B4 d4 | e8 z8 | b2 d'2 b2 a2 b2 z2 z4 | %10
 a2 b2 a2 g2 a4 z4 | a2 b2 a2 g2 e'2 b2 z4 | (d'8 d'4) z4 | e2 g2 e2 d2 e4 z2 EF | %14
 g2 b2 g2 f2 a4 z4 | B2 d2 e2 g2 e2 d2 B2 d2 | e8 z8 |: z16 | z16 | z16 | z16 | z16 | z16 | z16 | %24
 z16 | z16 | z16 | z16 | z16 | z16 | z16 | z16 | z16 | d4 B4 B4 A2 G2 | e4 B4 d4 g2 f2 | %35
 B4 A2 B2 e2 e2 e4 | d8 z4 g2 f2 | e4 e4 e4 d2 e2 | g4 g4 a4 B2 d2 | e4 B2 d2 e4 g4 | e8 z8 | z16 | %42
 z16 | z16 |1 z16 :|2"^ritardando"[Q:1/4=200] z16 ||[Q:1/4=80]"^ ="[Q:1/4=100] z16 |] %47
V:2
 z4 | z16 | z16 | z16 | z16 | z16 | z16 | z16 | z16 | z16 | z16 | z16 | z16 | z16 | z16 | z16 | %16
 z16 |: e4 e4 e4 z4 | G4 d2 e2 A4 g2 a2 | B4 A2 G2 E4 E4 | F8 G2 F2 z4 | e4 e4 e4 z4 | %22
 G4 d2 e2 A4 g2 a2 | B4 A2 G2 E4 E4 | z16 | z16 | z16 | z16 | z16 | z16 | z16 | z16 | z16 | z16 | %34
 z16 | z16 | z16 | z16 | z16 | z16 | z16 | z16 | z16 | z16 |1 z16 :|2 z16 || z16 |] %47
V:3
 B2 d2 | e4 e4 e4 d2 e2 | g4 g4 a4 g2 a2 | b4 a2 g2 e4 e4 | (d8 d2) d2 g2 f2 | e4 e4 e4 d2 e2 | %6
w: ||||||
w: ||||||
w: ||||||
w: ||||||
 e4 e4 e4 d2 e2 | b4 a2 g2 e4 d4 | (e8 e4) b4 | d'4 b4 b4 a2 g2 | a4 b4 a4 g2 a2 | b4 a2 g2 e4 e4 | %12
w: ||||||
w: ||||||
w: ||||||
w: ||||||
 (d8 d4) g2 f2 | e4 e4 e4 d2 e2 | g4 g4 a4 g2 a2 | b4 a2 g2 e4 d4 | (e8 e4) B,2 D2 |: %17
w: ||||* * Near to|
w: ||||* * As she|
w: |||||
w: |||||
 E4 E4 E4 D2 E2 | G4 G4 A4 G2 A2 | B4 A2 G2 E4 E4 | (D8 D4) B,2 D2 | E4 E4 E4 D2 E2 | %22
w: Ban- bridge Town in the|Coun- ty Down o- ne|mor- ni- ng last Ju|ly, * down a|bor- een green came a|
w: on- ward sped, sure I|shook my head, and I|gazed with a feel- ing|rare. * And I|said says I to a|
w: travelled a bit but I|never was hit, since my|ro- ving car- reer be-|gan. * bu- t|fair and square I sur-|
w: har- vest fair I'll be|sure- ly there, and I'll|dress in my Sun- day|clothes. * With my|shoes shone bright and my|
 G4 G4 A4 G2 A2 | B4 A2 G2 E4 D4 | (E8 E4) B2 B2 | d4 B4 B4 A2 G2 | A4 B4 A4 G2 A2 | %27
w: sweet col- leen and she|smiled as she passed me|by. * She- *|looked so sweet from her|two bare feet to the|
w: pa- sser by 'Who's the|maid with the nut brown|hair?' * He- *|smiled at me and with|pride says he 'That's the|
w: ren- dered there, to the|charms of young Rosie Mc-|Cann. * I'd- a|heart to let and no|ten- nant yet, did I|
w: hat cocked right, for a|smile from my nut brown|rose. * N- o|pipe I'll smoke, n- o|horse I'll yoke, till my|
 B4 A2 G2 E4 E4 | (D8 D4) B,2 D2 | E4 E2 E2 E4 D2 E2 | G4 G2 G2 A4 G2 A2 | B4 A2 G2 E4 D4 | %32
w: sheen on her nut brown|hair. * Such a|coa- x- ing elf sure I|shook m- y self to make|sure I was stand ing|
w: gem o- f Ire- land's|crown. * She- 's|Ro- sie Mc- Cann from the|banks of the Bann she's the|star of the Coun- ty|
w: meet with- in shawl or|gown. * Bu- t|in she wen- t and I|asked n- o rent from the|star of the Coun- ty|
w: plough turns a rust colored|brown. * 'Till a|sm- i- ling bride by my|own fi- re- side sits the|star of the Coun- ty|
 (E8 E4) B4 | d4 B4 B4 A2 G2 | A4 B4 A4 G2 A2 | B4 A2 G2 E2 E2 E4 | (D8 D4) B,2 D2 | %37
w: there. * From|Ban- try Bay up to|Der- ry Quay and from|Gal- way to Du- b- lin|Town- * no- o|
w: Down.' * *|||||
w: Down. * *|||||
w: Down. * *|||||
 E4 E4 E4 D2 E2 | G4 G4 A4 G2 A2 | B4 A2 G2 E4 D4 | (E8 E4) g2 a2 | b2 b2 a2 g2 a2 a2 g2 f2 | %42
w: maid I've seen like that|sweet col- leen that I|met in the Coun- ty|Down. * * *||
w: |||||
w: |||||
w: |||||
 g2 g2 f2 e2 f4 g2 a2 | b4 e4 e4 d4 |1 (B8 B4) B,2 D2 :|2 (e8 e4) f2 g2 || (e8 e4) z2 z2 |] %47
w: ||* * as she|||
w: ||* * I have|||
w: ||* * At the|||
w: |||||
V:4
 z4 |"_E" .E,,4"_Em" .[E,G,B,]4"_C""_=" .C,,4 z4 |"_G" .G,,4"_GM" .[G,B,D]4"_D" .D,,4 z4 | %3
"_G" .G,,4"_GM" .[G,B,D]4"_E" .E,,4"_Em" .[E,G,B,]4 |"_D" .D,,4"_DM" .[DFA]4"_B""_-" .B,,4 z4 | %5
"_E" .E,,4"_Em" .[E,G,B,]4"_C""_=" .C,,4 z4 |"_G" .G,,4"_GM" .[G,B,D]4"_D" .D,,4 z4 | %7
"_G" .G,,4"_GM" .[G,B,D]4"_D" .D,,4"_GM" .[G,B,D]4 |"_E" .E,,4"_Em" .[E,G,B,]4"_E" .E,,4 z4 | %9
"_G" .G,,4"_GM" .[G,B,D]4"_D" .D,,4 z4 |"_D" .D,,4"_DM" .[DFA]4"_A" .A,,4 z4 | %11
"_E" .E,,4"_Em" .[E,G,B,]4"_E" .E,,4"_EM" .[E,G,B,]4 |"_D" .D,,4"_DM" .[DFA]4"_A" .A,,4 z4 | %13
"_E" .E,,4"_Em" .[E,G,B,]4"_C""_=" .C,,4 z4 |"_G" .G,,4"_GM" .[G,B,D]4"_D" .D,,4 z4 | %15
"_GM/G" .[G,,G,B,D]4 z4"_CM/C" .[C,,CEG]4 z4 |"_D7/D" [D,,A,EF]8 z8 |: %17
"_E" .E,,4"_Em" .[E,G,B,]4"_B" .B,,4 z4 |"_G" .G,,4"_GM" .[G,B,D]4"_D" .D,,4 z4 | %19
"_G" .G,,4"_GM" .[G,B,D]4"_E""_-" .E,,4"_DM" .[DFA]4 |"_D" .D,,4"_DM" .[DFA]4"_D" .D,,4 z4 | %21
"_E" .E,,4"_Em" .[E,G,B,]4"_E" .E,,4 z4 |"_G" .G,,4"_GM" .[G,B,D]4"_D" .D,,4 z4 | %23
"_G" .G,,4"_GM" .[G,B,D]4"_C" .C,,4"_DM" .[DFA]4 |"_Em/E" .[E,,E,G,B,]8 z4 z4 | %25
"_G" .G,,4"_GM" .[G,B,D]4"_G" .G,,4 z4 |"_A" .A,,4"_Am" .[A,=CE]4"_A" .A,,4 z4 | %27
"_G" .G,,4"_GM" .[G,B,D]4"_E" .E,,4"_Em" .[E,G,B,]4 |"_D" .D,,4"_DM" .[DFA]4"_D" .D,,4 z4 | %29
"_E" .E,,4"_Em" .[E,G,B,]4"_E" .E,,4 z4 |"_G" .G,,4"_GM" .[G,B,D]4"_D" .D,,4 z4 | %31
"_E" .E,,4"_Em" .[E,G,B,]4"_C""_=" .C,,4"_DM" [DFA]4 |"_Em/E" .[E,,E,G,B,]8 z4 z4 | %33
"_G" .G,,4"_GM" .[G,B,D]4"_G" .G,,4 z4 |"_A" .A,,4"_Am" .[A,=CE]4"_A" .A,,4 z4 | %35
"_G" .G,,4"_GM" .[G,B,D]4"_E""_-" .E,,4"_Em" .[E,G,B,]4 |"_D" .D,,4"_DM" .[DFA]4"_DM" .[DFA]4 z4 | %37
"_E" .E,,4"_Em" .[E,G,B,]4"_E" .E,,4 z4 |"_G" .G,,4"_GM" .[G,B,D]4"_D" .D,,4 z4 | %39
"_E" .E,,4"_Em" .[E,G,B,]4"_C""_=" .C,,4"_DM" [DFA]4 |"_Em/E" .[E,,E,G,B,]8 z4 z4 | %41
 z4 z4"_Am/A" .[A,,A,CE]4 z4 |"_Bm/B" .[B,,B,DF]4 z4"_CM/C" .[C,,CEG]4 z4 | %43
"_Dm/D" .[D,,CEA]4 z4"_Bm/B" .[B,,B,DF]4 z4 |1"_E7/E" [E,,^G,DE]8 z8 :|2"_Em/E" [E,,E,G,B,]8 z8 || %46
"_Em/E" [E,,E,G,B,]8 z8 |] %47

